X: 12154
T: Ewing
R: jig
M: 6/8
K: Amajor
|:c3 cBA|ABc A2E|FAG A2e|cBA Bcd|
c3 cBA|ABc A2a|gea geB|1 ceB BAA:|2 ceB BAe||
fca g2e|efc ec/B/A|eff fec|cBA Bce|
fca g2e|efc ec/d/e|dAf fec|BAG A2e|
fca g2e|efc ec/B/A|eff fec|cBA Bcd|
c3 cBA|ABc A2a|gea geB|ceB BAA||

